public/images/tripadvisor.svg

<svg width="130" height="130" viewBox="0 0 130 130" fill="none" xmlns="http://www.w3.org/2000/svg">
<circle cx="65" cy="65" r="65" fill="#11AD87"/>
<path d="M75.8282 37.4493C78.5076 37.8281 81.1315 38.5011 83.7242 39.2978C88.2502 40.6916 92.521 42.6278 96.5377 45.1397C96.8172 45.3131 97.1902 45.4231 97.5194 45.4231C102.237 45.4426 106.953 45.4358 111.667 45.4397C112.047 45.4397 112.425 45.4796 112.804 45.501C112.804 45.5936 112.818 45.6325 112.802 45.654C112.582 45.9929 112.359 46.327 112.138 46.6649C110.537 49.1193 109.17 51.6867 108.363 54.5248C108.275 54.8297 108.256 55.0849 108.463 55.3839C112.663 61.4147 114.003 68.0357 112.248 75.1729C110.709 81.4326 107.121 86.3132 101.669 89.7688C97.7717 92.2398 93.4668 93.4163 88.8677 93.4416C86.9353 93.4533 85.0127 93.1933 83.1252 92.7043C78.5261 91.5112 74.5835 89.2185 71.3343 85.7463C70.9058 85.2905 70.5026 84.8142 70.0458 84.299C68.3277 86.8596 66.6369 89.3782 64.9052 91.9632C63.1803 89.386 61.5129 86.8917 59.8493 84.4071C59.7344 84.4675 59.7013 84.4743 59.6789 84.4957C59.6409 84.5269 59.6088 84.5649 59.5786 84.6009C55.6486 89.2419 50.7048 92.0868 44.6817 93.0384C41.3313 93.5692 38.013 93.3783 34.759 92.4813C30.1472 91.2142 26.228 88.7812 23.0616 85.1912C19.9673 81.681 18.0428 77.6059 17.3201 72.9727C16.4932 68.6483 17.5003 64.4788 17.7516 63.4668C18.4801 60.5255 19.7501 57.8246 21.4935 55.341C21.6163 55.1647 21.6591 54.8531 21.6007 54.6427C20.8897 52.0354 19.6644 49.6638 18.2298 47.3925C17.8655 46.8149 17.4292 46.2802 17.026 45.726C17.026 45.6627 17.026 45.5975 17.026 45.5332C17.1068 45.5429 17.1867 45.5585 17.2656 45.5585C22.0925 45.5605 26.9185 45.5624 31.7455 45.5527C31.9559 45.5527 32.1896 45.466 32.3689 45.351C35.7602 43.1752 39.3736 41.4513 43.1702 40.1092C45.908 39.143 48.7033 38.3891 51.5541 37.8369C54.3143 37.3032 57.0891 36.9272 59.8932 36.7422C66.7294 36.2162 72.1934 36.9399 75.8282 37.4493ZM69.777 69.3282C69.777 79.9278 78.3771 88.5874 88.9388 88.5465C99.5404 88.5085 108.102 80.0924 108.094 69.3759C108.086 58.3321 99.1275 50.03 88.5278 50.2452C78.0635 50.4624 69.8724 58.897 69.777 69.3282ZM41.0342 50.1722C30.7238 50.0826 21.7341 58.6876 21.9143 69.6486C22.0818 79.8704 30.5066 88.5358 41.2485 88.4432C51.7518 88.3536 60.1941 79.7769 60.2136 69.3905C60.2301 58.7197 51.6846 50.1722 41.0342 50.1722ZM41.9848 45.1718C47.8092 45.5273 52.9254 47.5571 57.2479 51.488C61.5616 55.4112 64.089 60.3053 65.0075 66.0605C65.9522 60.3735 68.4134 55.5251 72.6463 51.6409C76.886 47.7529 81.934 45.7124 87.6629 45.2809C80.8646 42.2587 73.6962 40.975 66.3174 40.8328C57.9316 40.6682 49.7746 41.9042 41.9848 45.1718Z" fill="white"/>
<path d="M88.8999 57.2354C95.4596 57.2247 100.773 62.5094 100.773 69.0623C100.773 75.6404 95.5502 80.7255 89.3889 80.9602C82.5078 81.2242 77.002 75.7417 77.0039 69.0915C77.0098 62.3653 82.5545 57.1243 88.8999 57.2354ZM96.6371 69.0915C96.6342 64.8158 93.1776 61.3406 88.9311 61.3406C84.6359 61.3406 81.1394 64.7973 81.1218 69.0603C81.1063 73.3049 84.6203 76.8365 88.8756 76.8481C93.1377 76.8647 96.6391 73.3594 96.6371 69.0915Z" fill="white"/>
<path d="M40.7808 57.2353C47.3366 57.2285 52.6573 62.523 52.6408 69.0749C52.6223 75.7066 47.395 80.6807 41.3418 80.9563C34.4334 81.2719 28.8594 75.765 28.8721 69.0788C28.8857 62.3048 34.4685 57.1224 40.7808 57.2353ZM48.5092 69.0651C48.4965 64.7631 45.0175 61.3338 40.6746 61.3416C36.4856 61.3494 32.9754 64.8849 32.9852 69.0895C32.9959 73.3428 36.5021 76.8403 40.7691 76.852C45.0097 76.8617 48.5199 73.3301 48.5092 69.0651Z" fill="white"/>
<path d="M88.9055 65.1556C91.0794 65.1537 92.8618 66.937 92.8413 69.0983C92.8199 71.2644 91.0677 73.0194 88.9299 73.0204C86.7287 73.0204 84.959 71.2809 84.9639 69.1255C84.9678 66.8893 86.6868 65.1576 88.9055 65.1556Z" fill="white"/>
<path d="M40.7609 65.1206C42.9679 65.1187 44.7415 66.8815 44.7503 69.0817C44.759 71.2634 42.9689 73.0545 40.7726 73.0594C38.5237 73.0643 36.7891 71.3267 36.791 69.0661C36.791 66.8465 38.5218 65.1235 40.7609 65.1206Z" fill="white"/>
</svg>

<svg xmlns="http://www.w3.org/2000/svg" width="130" height="130" fill="none"><circle cx="65" cy="65" r="65" fill="#11AD87"/><path fill="#fff" d="M75.828 37.45c2.68.378 5.304 1.051 7.896 1.848a54 54 0 0 1 12.814 5.842c.28.173.652.283.981.283 4.718.02 9.434.013 14.148.017.38 0 .758.04 1.137.061 0 .093.014.132-.002.153q-.331.507-.664 1.01c-1.601 2.455-2.968 5.023-3.775 7.86-.088.306-.107.56.1.86 4.2 6.03 5.54 12.652 3.785 19.789-1.539 6.26-5.127 11.14-10.579 14.596-3.897 2.47-8.202 3.647-12.801 3.673a22.3 22.3 0 0 1-5.743-.738c-4.599-1.193-8.541-3.485-11.79-6.958-.43-.456-.832-.932-1.29-1.447l-5.14 7.664-5.056-7.556c-.115.06-.148.067-.17.089a1 1 0 0 0-.1.105c-3.93 4.64-8.874 7.486-14.897 8.437-3.35.531-6.669.34-9.923-.557-4.612-1.267-8.531-3.7-11.697-7.29-3.095-3.51-5.02-7.585-5.742-12.218-.827-4.325.18-8.494.432-9.506.728-2.941 1.998-5.642 3.742-8.126.122-.176.165-.488.107-.698-.711-2.608-1.937-4.98-3.371-7.25-.364-.578-.8-1.113-1.204-1.667v-.193c.08.01.16.026.24.026 4.827.002 9.653.003 14.48-.006.21 0 .444-.087.623-.202 3.391-2.176 7.005-3.9 10.801-5.242a59 59 0 0 1 8.384-2.272c2.76-.534 5.535-.91 8.34-1.095 6.835-.526 12.3.198 15.934.707m-6.051 31.878c0 10.6 8.6 19.26 19.162 19.218 10.601-.038 19.163-8.454 19.155-19.17-.008-11.044-8.966-19.346-19.566-19.13-10.465.216-18.656 8.651-18.751 19.082M41.034 50.172c-10.31-.09-19.3 8.516-19.12 19.477.168 10.221 8.593 18.887 19.335 18.794 10.503-.09 18.945-8.666 18.965-19.052a19.115 19.115 0 0 0-19.18-19.219m.95-5c5.825.355 10.941 2.385 15.264 6.316 4.314 3.923 6.841 8.817 7.76 14.573.944-5.688 3.405-10.536 7.638-14.42 4.24-3.888 9.288-5.929 15.017-6.36-6.798-3.022-13.967-4.306-21.346-4.448-8.385-.165-16.542 1.071-24.332 4.339"/><path fill="#fff" d="M88.9 57.235c6.56-.01 11.873 5.274 11.873 11.827 0 6.578-5.223 11.664-11.384 11.898-6.881.264-12.387-5.218-12.385-11.868.006-6.727 5.55-11.968 11.896-11.857m7.737 11.856c-.003-4.275-3.46-7.75-7.706-7.75-4.295 0-7.792 3.456-7.81 7.72-.015 4.244 3.5 7.775 7.755 7.787 4.262.017 7.763-3.489 7.761-7.757M40.78 57.235c6.557-.007 11.877 5.288 11.86 11.84-.018 6.632-5.245 11.606-11.298 11.881-6.909.316-12.483-5.191-12.47-11.877.014-6.774 5.596-11.957 11.909-11.844m7.73 11.83c-.014-4.302-3.492-7.731-7.835-7.723-4.19.007-7.7 3.543-7.69 7.748.01 4.253 3.517 7.75 7.784 7.762 4.24.01 7.75-3.522 7.74-7.787"/><path fill="#fff" d="M88.906 65.156c2.173-.002 3.956 1.781 3.935 3.942-.021 2.166-1.773 3.921-3.911 3.922-2.201 0-3.971-1.74-3.966-3.894.004-2.237 1.723-3.968 3.942-3.97M40.76 65.12a3.97 3.97 0 0 1 3.99 3.962c.009 2.181-1.781 3.973-3.977 3.977-2.25.005-3.984-1.732-3.982-3.993 0-2.22 1.73-3.942 3.97-3.945"/></svg>
